!!!OTL: Graserin und Reiter Es wollt ein Maedchen grasen gehn
!!!ARE: Europa, Mitteleuropa, Deutschland / France, Lothringen, Kreis Forbach
!!!YOR: 7, S. 130
!!    1935 aufgezeichnet
!!!SCT: Q0149A
!!!YEM: Copyright 1995, estate of Helmut Schaffrath.
**kern
*ICvox
*Ivox
*M3/4
*k[f#]
*G:
{8d
8g
=1
2g
4g
=2
4g
4a
4b
=3
2a
4f#
=4
2d}
{4d
=5
2g
4g
=6
4g
4a
4b
=7
2a}
{8a
8b
=8
4cc
4ee
4ee
=9
4ee
4dd
4cc
=10
2b
4dd
=11
4dd
4cc}
{4b
=12
2a
4dd
=13
4dd
4dd
4cc
=14
2b}
{8a
8b
=15
4cc
4ee
4ee
=16
4ee
4dd
4cc
=17
2b
4dd
=18
4dd
4cc}
{4b
=19
2a
4dd
=20
4dd
4dd
4cc
=21
2b}
==
!!!AGN: Ballade, Verfuehrung, Verlassen des Elternhauses
!!!ONB: ESAC (Essen Associative Code) Database: BALLADE
!!!AMT: simple triple
!!!AIN: vox
!!!EED: Helmut Schaffrath
!!!EEV: 1.0
*-
